src/assets/icons/flag.svg

<svg width="16" height="16" viewBox="0 0 16 16" fill="none" xmlns="http://www.w3.org/2000/svg">
<g clip-path="url(#clip0_8874_15271)">
<path fill-rule="evenodd" clip-rule="evenodd" d="M1.72785 0.0244335C1.58431 0.0630238 1.47104 0.131912 1.34742 0.255787C1.21942 0.384057 1.1414 0.527509 1.11196 0.68871C1.08683 0.82628 1.0859 15.122 1.11102 15.283C1.13645 15.446 1.23083 15.6263 1.35633 15.7514C1.77979 16.1737 2.49849 16.035 2.74214 15.4841C2.76561 15.431 2.7928 15.3239 2.80256 15.246C2.81405 15.1544 2.82033 14.2936 2.82033 12.8087V10.5131L8.50115 10.5083C14.75 10.5031 14.2291 10.5124 14.4461 10.4021C14.5572 10.3456 14.7245 10.1907 14.7842 10.0889C14.9277 9.84408 14.9392 9.49639 14.8115 9.26189C14.7854 9.2139 14.1036 8.29392 13.2963 7.21746C12.4891 6.141 11.8325 5.25016 11.8372 5.23778C11.842 5.2254 12.5054 4.33589 13.3114 3.26109C14.2454 2.01569 14.7942 1.26943 14.8245 1.20355C14.8891 1.06334 14.9155 0.875078 14.892 0.722461C14.8398 0.383783 14.559 0.0849776 14.2282 0.0162093C14.1631 0.00268477 12.4015 -0.00230785 7.97883 -0.00150424C2.6533 -0.000529654 1.80761 0.00297547 1.72785 0.0244335ZM2.82033 5.24647V8.78576H7.57365H12.327L11.1979 7.28052C10.5769 6.45265 10.045 5.7366 10.0159 5.68934C9.93717 5.56129 9.89888 5.41989 9.89912 5.25777C9.89936 5.09058 9.9287 4.97103 10.0009 4.84319C10.0303 4.79096 10.5604 4.07361 11.1787 3.24907C11.797 2.42454 12.3088 1.74031 12.3159 1.72854C12.3263 1.71146 11.3735 1.70717 7.57459 1.70717H2.82033V5.24647Z" fill="currentColor"/>
</g>
<defs>
<clipPath id="clip0_8874_15271">
<rect width="16" height="16" fill="white" transform="translate(0 -0.000732422)"/>
</clipPath>
</defs>
</svg>

<svg xmlns="http://www.w3.org/2000/svg" width="16" height="16" fill="none">
  <g clip-path="url(#a)">
    <path fill="currentColor" fill-rule="evenodd" d="M1.728.024a.808.808 0 0 0-.38.232.81.81 0 0 0-.236.433c-.025.137-.026 14.433-.001 14.594a.856.856 0 0 0 1.631.201c.024-.053.05-.16.06-.238.012-.092.018-.952.018-2.437v-2.296l5.681-.005c6.249-.005 5.728.004 5.945-.106.111-.056.279-.211.338-.313.144-.245.155-.593.027-.827a116.71 116.71 0 0 0-1.515-2.045c-.807-1.076-1.463-1.967-1.459-1.98.005-.012.668-.901 1.474-1.976.934-1.245 1.483-1.992 1.514-2.057a.9.9 0 0 0 .067-.482.88.88 0 0 0-.664-.706c-.065-.013-1.826-.018-6.25-.018-5.325.001-6.17.005-6.25.026ZM2.82 5.246v3.54h9.507l-1.13-1.505a117.009 117.009 0 0 1-1.181-1.592.798.798 0 0 1-.117-.431.78.78 0 0 1 .102-.415c.03-.052.56-.77 1.178-1.594.618-.824 1.13-1.509 1.137-1.52.01-.018-.943-.022-4.741-.022H2.82v3.54Z" clip-rule="evenodd"/>
  </g>
  <defs>
    <clipPath id="a">
      <path fill="#fff" d="M0 0h16v16H0z"/>
    </clipPath>
  </defs>
</svg>
